X:11
T:Hewlett
T:Planxty Hewlett
R:carolan
C:Turlough O'Carolan (1670-1738)
Z:id:hn-carolan-11
M:3/4
L:1/8
Q:1/4=160
K:D
AF | D2D2FG | ABc2A2 | d2f2fg | fed2dB |
A2F2FA | GFGABG | AFD2DE| D4 :|
|: A2 | A2D2AB | A2D2AB | A2d2de | dcBAGF |
G2GFGA | G2GFGA | GFGABG | AFD2E2 |
FEF2G2 | ABc2A2 | d2f2fg | fed2dB |
A2F2FA | GFGABG | AFD2DE | D4 :|

